X:1
T:TAKE BACK THE HEART
T:TAKE BACK THE HEART
T:CLARIBEL
C:CLARIBEL
%%score 1 { 2 | ( 3 4 ) }
L:1/8
Q:1/4=109
M:3/4
K:F
V:1 treble nm="Ténor" snm="T."
V:2 treble nm="Piano" snm="Pia."
V:3 bass 
V:4 bass 
V:1
"^Allegretto" x6 | x6 | x6 | x6 | x6 | x6 |[K:F][K:treble] z6 | z6 |:S A2 A2 A2 | B2 A2 G2 | c6 | %11
w: ||||||||Take back the|heart that thou|gav-|
w: ||||||||Then when at|last o- ver-|ta-|
 !>!c6 | C2 F2 G2 | A2 B2 A2 | G6- | G2 z2 z2 | A2 A2 A2 | B2 A2 G2 | c6 | c6 | c2 B2 D2 | %21
w: est,|What is my|an- guish to|thee?-|_|Take back the|free- dom thou|cra-|vest,|Leav- ing the|
w: ken,|Time flings its|fet- ters o'er|thee,-|_|Come with a|trust still un-|sha-|ken,|Come back a|
 E2 A3 G | F6- | F2 z2 z2 | A2 f2 e2 | d2 c2 B2 |!<(!!>(! (A6{cB)}!<)!!>)! | A2- A z z2 | %28
w: fet- ters to|me,-|_|Take back the|vows thou hast|spo-|ken, *|
w: cap- tive to|me,-|_|Come back in|sad- ness or|sor-|row *|
 G2 E2 F2 | G2 F2 E2 | D6- | D4- D z | %32
w: Fling them a-|side and be|free,-|_ _|
w: Once more my|dar- ling to|be,-|_ _|
"^stringendo"[Q:1/4=112] (.A2[Q:1/4=115] .f2[Q:1/4=118] .e2) | %33
w: Smile o'er each|
w: Come as of|
[Q:1/4=121] (.d2[Q:1/4=124] .c2[Q:1/4=128] .B2) |[Q:1/4=137] (!^!A6{cB)} | %35
w: pi- ti- ful|to-|
w: old, love, to|bor-|
[Q:1/4=143] A4-[Q:1/4=145] A z |[Q:1/4=149] G2[Q:1/4=152] ^F2[Q:1/4=155] G2 | %37
w: ken,- _|Lea- ving the|
w: row,- _|Glimp- ses of|
[Q:1/4=157] =B[Q:1/4=161] !^!e3[Q:1/4=164] d2 |!<(! (c6!<)! | %39
w: sor- row for|me-|
w: sun- light from|me-|
"^rall." =B4[Q:1/4=156] !fermata!_B2)[Q:1/4=160] |[Q:1/4=151] A2[Q:1/4=147] A2[Q:1/4=143] A2 | %41
w: _ _|Drink deep of|
w: _ _|Love shall re-|
[Q:1/4=139] B2[Q:1/4=134] A2[Q:1/4=130] G2 |[Q:1/4=117]!<(! c6!<)! |[Q:1/4=109]!>(! c4- c!>)! z | %44
w: life's fond il-|lu-|sion- _|
w: sume her do-|min-|ions- _|
 C2 F2 G2 | A2 B2 A2 |!<(! G6-!<)! |!>(! G4- G!>)! z | A2 A2 A2 | B2 A2 G2 | c6 |!>(! c4- c!>)! z | %52
w: Gaze on the|storm- cloud and|flee-|_ _|Swift- ly thro'|strife and con-|fu-|sion- _|
w: Striv- ing no|more to be|free-|_ _|When on her|world wea- ry|pin-|ion- _|
 (.c2"^rit."[Q:1/4=105] .B2[Q:1/4=100] .D2) | %53
w: Leav- ing the|
w: Flies back my|
[Q:1/4=96] E2[Q:1/4=91]!<(!!>(! !fermata!A3!<)!!>)![Q:1/4=89] G |1[Q:1/4=76] F6- | %55
w: bur- den to|me-|
w: lost love to||
[Q:1/4=71] F2[Q:1/4=63] z2[Q:1/4=54] z2 :|2[Q:1/4=76] F6- | %57
w: _|me.-|
w: |me.-|
[Q:1/4=71] F2[Q:1/4=63] z2[Q:1/4=54] z2 |] %58
w: _|
w: _|
V:2
!mf! [Aa]2 [Aa]2 [Aa]2 | [Bb]2 [Aa]2 [Gg]2 | !wedge![cc']2 z2 z2 | !>![cc']6 | c2 f2 [Gg]2 | %5
 [Aa]2 [Aa]2 [Gg]2 | [FAf]6- | [FAf]2 z2 z2 |:!p! z2 [CFA]2 [CFA]2 | z2 [CEB]2 [CEB]2 | %10
 z2 [CFA]2 [CFA]2 | z2 [CFA]2 [CFA]2 | z2 [CFA]2 [CFA]2 | z2 !^![DB]2 !^![CA]2 | %14
 z2 [=B,FG]2 [B,FG]2 | z2 [_B,EG]2 [B,EG]2 | z2 [CFA]2 [CFA]2 | z2 [CEB]2 [CEB]2 | %18
 z2 [CFA]2 [CFA]2 | [_E^FAc]2 [EFAc]2 [EFAc]2- | [_E^FAc]2!>(! [DGB]2 [DGB]2 | z2 [C=EB]2 [CEB]2 | %22
 z2 [C=FA]2 [CFA]2 | z2 [CFA]2!>)! [CFA]2 | z2 [DFA]2 [DFA]2 | z2 [DGB]2 [DGB]2 | %26
 z2 [DFA]2 [DFA]2 | z2 [DFA]2 [DFA]2 | z2 [^CEG]2 [CEG]2 | z2 [^CEG]2 [CEG]2 | z2 [DF]2 [DF]2 | %31
 z2 [DFA]2 [DFA]2 | z2 [DFA]2 [DFA]2 | z2 [DGB]2 [DGB]2 | z2 [DFA]2 [DFA]2 | z2 [CFA]2 [CFA]2 | %36
 z2 [CEG]2 [CEG]2 | z2 [DFG=B]2 [DFGB]2 | z2 [CEGc]2 [CEGc]2 | z2 (.[DFG=B]2 .!fermata![CEG_B]2) | %40
 z2 [CFA]2 [CFA]2 | z2 [CEB]2 [CEB]2 | z2 [CFA]2 [CFA]2 | z2 [CFA]2 [CFA]2 | z2 [CFA]2 [CFA]2 | %45
 z2 [DB]2 [CA]2 | z2 [=B,FG]2 [B,FG]2 | z2 [CEG]2 [CEG]2 | z2 [CFA]2 [CFA]2 | z2 [CEB]2 [CEB]2 | %50
 z2 [CFA]2 [CFA]2 | z2 [^FAc]2 [DFAc]2- | [DFAc]2 [DGB]2 [DGB]2 | z2 [CEB]2 !fermata![CEB]2 |1 %54
 [CFA]6 | [CFA]2 z2 z2 :|2 [CFA]6 | [CFA]2 z2 z2 |] %58
V:3
 F,2 [A,CF]2 [A,CF]2 | [G,,G,]2 [B,CE]2 [B,CE]2 | [A,,A,]2 [A,CF]2 [A,CF]2 | A,2 [CF]2 [CF]2 | %4
 C,6 | C,6 | F,2 [A,CF]2 [A,CF]2 | F,2 [A,CF]2 [A,CF]2 |: F,2 z2 z2 | G,2 z2 z2 | A,2 z2 z2 | %11
 A,,6 | C,6 | C,6 | !^!D,6 | [C,G,]6 | [F,A,]6 | G,2 z2 z2 | A,2 z2 z2 | (!^!_E,4 A,,2 | B,,6) | %21
 [C,,C,]6 | [F,,F,]6 | F,2 z2 z2 | D,2 z2 z2 | D,2 z2 z2 | D,6 | D,6 | (!^!A,6 | A,,2) z2 z2 | %30
 D,6 | D,6 | [D,,D,]2 z2 z2 | [G,,G,]2 z2 z2 | D,6 | F,6 | G,6 | G,,6 | C,6 | (D,4 !fermata!E,2) | %40
 F,2 z2 z2 | [G,,G,]2 z2 z2 | !>![A,,A,]6 | !wedge![A,,A,]2 z2 z2 | C,2 z2 z2 | C,6 | D,6 | %47
 [C,G,]6 | F,2 z2 z2 | G,2 z2 z2 | A,6 | [_E,_E]4 D,2 | B,,6 | !fermata![C,,C,]6 |1 %54
 ([F,,F,]2 !^!D,2 C,2) | F,,2 A,,2 C,2 :|2 ([F,,F,]2 !^!D,2 C,2) | F,,2 z2 z2 |] %58
V:4
 x6 | x6 | x6 | x6 | C,2 [A,CF]2 [A,CF]2 | C,2 [B,CE]2 [B,CE]2 | x6 | x6 |: x6 | x6 | x6 | x6 | %12
 x6 | x6 | x6 | x6 | x6 | x6 | x6 | x6 | x6 | x6 | x6 | x6 | x6 | x6 | x6 | x6 | x6 | x6 | x6 | %31
 x6 | x6 | x6 | x6 | x6 | x6 | x6 | x6 | x6 | x6 | x6 | x6 | x6 | x6 | x6 | x6 | x6 | x6 | x6 | %50
 x6 | x6 | x6 | x6 |1 x6 | x6 :|2 x6 | x6 |] %58

